static/cards/FrenchDeck/cyberwave/card_spades_09.svg

<svg xmlns="http://www.w3.org/2000/svg" width="822" height="1122" fill="none" viewBox="0 0 822 1122"><rect width="822" height="1122" fill="#1a0033" rx="20"/><g fill="#fff066" clip-path="url(#a)"><path d="M118.254 160.92q-7.169 0-13.056-1.536-5.76-1.536-9.728-4.224-.767-.512-.896-.896-.128-.384.256-1.152l1.664-2.816q.384-.768.896-.768.256 0 .896.384 8.064 5.12 20.096 5.12 12.416 0 19.968-8.96 7.68-9.088 8.704-25.472-9.984 12.16-26.752 12.16-9.473 0-16.896-3.456-7.296-3.584-11.52-10.112-4.096-6.656-4.096-15.872 0-16.384 9.344-24.832t25.472-8.448q14.592 0 23.04 9.472 8.576 9.344 8.576 29.568 0 28.416-10.496 40.192-10.496 11.648-25.472 11.648m3.2-34.176q6.016 0 12.032-2.56 6.016-2.688 9.856-7.68 3.968-5.12 3.968-12.288 0-14.08-6.528-21.12-6.528-7.168-18.176-7.168-28.16 0-28.16 27.392 0 11.52 7.04 17.536 7.04 5.888 19.968 5.888M121.202 281.503c10.18 10.18 26.685 10.18 36.865 0s10.18-26.685 0-36.865l-33.179-33.179a5.213 5.213 0 0 0-7.373 0l-33.179 33.179.004.003c-9.814 10.207-9.692 26.436.365 36.493s26.287 10.179 36.493.365z"/><rect width="5" height="33" x="118.5" y="266" rx="2.5"/><path d="M695.746 957.08q7.168 0 13.056 1.536 5.76 1.536 9.728 4.224.768.512.896.896t-.256 1.152l-1.664 2.816q-.384.768-.896.768-.256 0-.896-.384-8.064-5.12-20.096-5.12-12.415 0-19.968 8.96-7.68 9.088-8.704 25.472 9.984-12.16 26.752-12.16 9.473 0 16.896 3.456 7.296 3.584 11.52 10.112 4.096 6.663 4.096 15.872c0 10.92-3.115 19.2-9.344 24.83s-14.72 8.45-25.472 8.45c-9.728 0-17.408-3.16-23.04-9.47-5.717-6.23-8.576-16.09-8.576-29.57q0-28.416 10.496-40.192 10.496-11.648 25.472-11.648m-3.2 34.176q-6.016 0-12.032 2.56-6.016 2.687-9.856 7.684c-2.645 3.41-3.968 7.51-3.968 12.28q0 14.085 6.528 21.12 6.528 7.17 18.176 7.17 28.16 0 28.16-27.39c0-7.68-2.347-13.53-7.04-17.536q-7.04-5.888-19.968-5.888M692.798 836.497c-10.18-10.18-26.685-10.18-36.865 0s-10.18 26.685 0 36.865l33.179 33.179a5.213 5.213 0 0 0 7.373 0l33.179-33.179-.004-.003c9.814-10.207 9.692-26.436-.365-36.493s-26.287-10.179-36.493-.365z"/><rect width="5" height="33" x="695.5" y="852" rx="2.5" transform="rotate(-180 695.5 852)"/></g><path stroke="#fff066" stroke-width="8" d="M445.739 577.674c-8.618 8.618-22.59 8.619-31.209.001l-2.777-2.777-2.827 2.718c-8.639 8.306-22.379 8.203-30.892-.31-8.514-8.514-8.617-22.254-.31-30.893l.137-.143 32.983-32.982a1.213 1.213 0 0 1 1.716-.001l33.179 33.179c8.618 8.618 8.618 22.59 0 31.208Z"/><rect width="5" height="33" x="409" y="565" fill="#fff066" rx="2.5"/><path stroke="#fff066" stroke-width="8" d="M277.739 739.674c-8.618 8.618-22.59 8.619-31.209.001l-2.777-2.777-2.827 2.718c-8.639 8.306-22.379 8.203-30.892-.31-8.514-8.514-8.617-22.254-.31-30.893l.137-.143 32.983-32.982a1.213 1.213 0 0 1 1.716-.001l33.179 33.179c8.618 8.618 8.618 22.59 0 31.208Z"/><rect width="5" height="33" x="241" y="727" fill="#fff066" rx="2.5"/><path stroke="#fff066" stroke-width="8" d="M441.739 739.674c-8.618 8.618-22.59 8.619-31.209.001l-2.777-2.777-2.827 2.718c-8.639 8.306-22.379 8.203-30.892-.31-8.514-8.514-8.617-22.254-.31-30.893l.137-.143 32.983-32.982a1.213 1.213 0 0 1 1.716-.001l33.179 33.179c8.618 8.618 8.618 22.59 0 31.208Z"/><rect width="5" height="33" x="405" y="727" fill="#fff066" rx="2.5"/><path stroke="#fff066" stroke-width="8" d="M613.739 739.674c-8.618 8.618-22.59 8.619-31.209.001l-2.777-2.777-2.827 2.718c-8.639 8.306-22.379 8.203-30.892-.31-8.514-8.514-8.617-22.254-.31-30.893l.137-.143 32.983-32.982a1.213 1.213 0 0 1 1.716-.001l33.179 33.179c8.618 8.618 8.618 22.59 0 31.208Z"/><rect width="5" height="33" x="577" y="727" fill="#fff066" rx="2.5"/><path stroke="#fff066" stroke-width="8" d="M613.739 577.674c-8.618 8.618-22.59 8.619-31.209.001l-2.777-2.777-2.827 2.718c-8.639 8.306-22.379 8.203-30.892-.31-8.514-8.514-8.617-22.254-.31-30.893l.137-.143 32.983-32.982a1.213 1.213 0 0 1 1.716-.001l33.179 33.179c8.618 8.618 8.618 22.59 0 31.208Z"/><rect width="5" height="33" x="577" y="565" fill="#fff066" rx="2.5"/><path stroke="#fff066" stroke-width="8" d="M277.739 577.674c-8.618 8.618-22.59 8.619-31.209.001l-2.777-2.777-2.827 2.718c-8.639 8.306-22.379 8.203-30.892-.31-8.514-8.514-8.617-22.254-.31-30.893l.137-.143 32.983-32.982a1.213 1.213 0 0 1 1.716-.001l33.179 33.179c8.618 8.618 8.618 22.59 0 31.208Z"/><rect width="5" height="33" x="241" y="565" fill="#fff066" rx="2.5"/><path stroke="#fff066" stroke-width="8" d="M613.739 415.674c-8.618 8.618-22.59 8.619-31.209.001l-2.777-2.777-2.827 2.718c-8.639 8.306-22.379 8.203-30.892-.31-8.514-8.514-8.617-22.254-.31-30.893l.137-.143 32.983-32.982a1.213 1.213 0 0 1 1.716-.001l33.179 33.179c8.618 8.618 8.618 22.59 0 31.208Z"/><rect width="5" height="33" x="577" y="403" fill="#fff066" rx="2.5"/><path stroke="#fff066" stroke-width="8" d="M277.739 415.674c-8.618 8.618-22.59 8.619-31.209.001l-2.777-2.777-2.827 2.718c-8.639 8.306-22.379 8.203-30.892-.31-8.514-8.514-8.617-22.254-.31-30.893l.137-.143 32.983-32.982a1.213 1.213 0 0 1 1.716-.001l33.179 33.179c8.618 8.618 8.618 22.59 0 31.208Z"/><rect width="5" height="33" x="241" y="403" fill="#fff066" rx="2.5"/><path stroke="#fff066" stroke-width="8" d="M445.739 415.674c-8.618 8.618-22.59 8.619-31.209.001l-2.777-2.777-2.827 2.718c-8.639 8.306-22.379 8.203-30.892-.31-8.514-8.514-8.617-22.254-.31-30.893l.137-.143 32.983-32.982a1.213 1.213 0 0 1 1.716-.001l33.179 33.179c8.618 8.618 8.618 22.59 0 31.208Z"/><rect width="5" height="33" x="409" y="403" fill="#fff066" rx="2.5"/><defs><clipPath id="a"><path fill="#fff" d="M46 48h722v1022H46z"/></clipPath></defs></svg>

<svg width="822" height="1122" viewBox="0 0 822 1122" fill="none" xmlns="http://www.w3.org/2000/svg">
<rect width="822" height="1122" rx="20" fill="#1A0033"/>
<g clip-path="url(#clip0_31_1882)">
<path d="M118.254 160.92C113.475 160.92 109.123 160.408 105.198 159.384C101.358 158.36 98.1153 156.952 95.47 155.16C94.958 154.819 94.6593 154.52 94.574 154.264C94.4887 154.008 94.574 153.624 94.83 153.112L96.494 150.296C96.75 149.784 97.0487 149.528 97.39 149.528C97.5607 149.528 97.8593 149.656 98.286 149.912C103.662 153.325 110.361 155.032 118.382 155.032C126.659 155.032 133.315 152.045 138.35 146.072C143.47 140.013 146.371 131.523 147.054 120.6C140.398 128.707 131.481 132.76 120.302 132.76C113.987 132.76 108.355 131.608 103.406 129.304C98.542 126.915 94.702 123.544 91.886 119.192C89.1553 114.755 87.79 109.464 87.79 103.32C87.79 92.3973 90.9047 84.12 97.134 78.488C103.363 72.856 111.854 70.04 122.606 70.04C132.334 70.04 140.014 73.1973 145.646 79.512C151.363 85.7413 154.222 95.5973 154.222 109.08C154.222 128.024 150.723 141.421 143.726 149.272C136.729 157.037 128.238 160.92 118.254 160.92ZM121.454 126.744C125.465 126.744 129.475 125.891 133.486 124.184C137.497 122.392 140.782 119.832 143.342 116.504C145.987 113.091 147.31 108.995 147.31 104.216C147.31 94.8293 145.134 87.7893 140.782 83.096C136.43 78.3173 130.371 75.928 122.606 75.928C103.833 75.928 94.446 85.0587 94.446 103.32C94.446 111 96.7927 116.845 101.486 120.856C106.179 124.781 112.835 126.744 121.454 126.744Z" fill="#FFF066"/>
<path d="M121.202 281.503C131.382 291.683 147.887 291.683 158.067 281.503C168.247 271.323 168.247 254.818 158.067 244.638L124.888 211.459C122.852 209.423 119.551 209.423 117.515 211.459L84.3364 244.638L84.34 244.641C74.5265 254.848 74.6481 271.077 84.7051 281.134C94.762 291.191 110.992 291.313 121.198 281.499L121.202 281.503Z" fill="#FFF066"/>
<rect x="118.5" y="266" width="5" height="33" rx="2.5" fill="#FFF066"/>
<path d="M695.746 957.08C700.525 957.08 704.877 957.592 708.802 958.616C712.642 959.64 715.885 961.048 718.53 962.84C719.042 963.181 719.341 963.48 719.426 963.736C719.511 963.992 719.426 964.376 719.17 964.888L717.506 967.704C717.25 968.216 716.951 968.472 716.61 968.472C716.439 968.472 716.141 968.344 715.714 968.088C710.338 964.675 703.639 962.968 695.618 962.968C687.341 962.968 680.685 965.955 675.65 971.928C670.53 977.987 667.629 986.477 666.946 997.4C673.602 989.293 682.519 985.24 693.698 985.24C700.013 985.24 705.645 986.392 710.594 988.696C715.458 991.085 719.298 994.456 722.114 998.808C724.845 1003.25 726.21 1008.54 726.21 1014.68C726.21 1025.6 723.095 1033.88 716.866 1039.51C710.637 1045.14 702.146 1047.96 691.394 1047.96C681.666 1047.96 673.986 1044.8 668.354 1038.49C662.637 1032.26 659.778 1022.4 659.778 1008.92C659.778 989.976 663.277 976.579 670.274 968.728C677.271 960.963 685.762 957.08 695.746 957.08ZM692.546 991.256C688.535 991.256 684.525 992.109 680.514 993.816C676.503 995.608 673.218 998.168 670.658 1001.5C668.013 1004.91 666.69 1009.01 666.69 1013.78C666.69 1023.17 668.866 1030.21 673.218 1034.9C677.57 1039.68 683.629 1042.07 691.394 1042.07C710.167 1042.07 719.554 1032.94 719.554 1014.68C719.554 1007 717.207 1001.15 712.514 997.144C707.821 993.219 701.165 991.256 692.546 991.256Z" fill="#FFF066"/>
<path d="M692.798 836.497C682.618 826.317 666.113 826.317 655.933 836.497C645.753 846.677 645.753 863.182 655.933 873.362L689.112 906.541C691.148 908.577 694.449 908.577 696.485 906.541L729.664 873.362L729.66 873.359C739.474 863.152 739.352 846.923 729.295 836.866C719.238 826.809 703.008 826.687 692.802 836.501L692.798 836.497Z" fill="#FFF066"/>
<rect x="695.5" y="852" width="5" height="33" rx="2.5" transform="rotate(-180 695.5 852)" fill="#FFF066"/>
</g>
<path d="M445.739 577.674C437.121 586.292 423.149 586.293 414.53 577.675L411.753 574.898L408.926 577.616C400.287 585.922 386.547 585.819 378.034 577.306C369.52 568.792 369.417 555.052 377.724 546.413L377.861 546.27L410.844 513.288C411.318 512.814 412.086 512.813 412.56 513.287L445.739 546.466C454.357 555.084 454.357 569.056 445.739 577.674Z" stroke="#FFF066" stroke-width="8"/>
<rect x="409" y="565" width="5" height="33" rx="2.5" fill="#FFF066"/>
<path d="M277.739 739.674C269.121 748.292 255.149 748.293 246.53 739.675L243.753 736.898L240.926 739.616C232.287 747.922 218.547 747.819 210.034 739.306C201.52 730.792 201.417 717.052 209.724 708.413L209.861 708.27L242.844 675.288C243.318 674.814 244.086 674.813 244.56 675.287L277.739 708.466C286.357 717.084 286.357 731.056 277.739 739.674Z" stroke="#FFF066" stroke-width="8"/>
<rect x="241" y="727" width="5" height="33" rx="2.5" fill="#FFF066"/>
<path d="M441.739 739.674C433.121 748.292 419.149 748.293 410.53 739.675L407.753 736.898L404.926 739.616C396.287 747.922 382.547 747.819 374.034 739.306C365.52 730.792 365.417 717.052 373.724 708.413L373.861 708.27L406.844 675.288C407.318 674.814 408.086 674.813 408.56 675.287L441.739 708.466C450.357 717.084 450.357 731.056 441.739 739.674Z" stroke="#FFF066" stroke-width="8"/>
<rect x="405" y="727" width="5" height="33" rx="2.5" fill="#FFF066"/>
<path d="M613.739 739.674C605.121 748.292 591.149 748.293 582.53 739.675L579.753 736.898L576.926 739.616C568.287 747.922 554.547 747.819 546.034 739.306C537.52 730.792 537.417 717.052 545.724 708.413L545.861 708.27L578.844 675.288C579.318 674.814 580.086 674.813 580.56 675.287L613.739 708.466C622.357 717.084 622.357 731.056 613.739 739.674Z" stroke="#FFF066" stroke-width="8"/>
<rect x="577" y="727" width="5" height="33" rx="2.5" fill="#FFF066"/>
<path d="M613.739 577.674C605.121 586.292 591.149 586.293 582.53 577.675L579.753 574.898L576.926 577.616C568.287 585.922 554.547 585.819 546.034 577.306C537.52 568.792 537.417 555.052 545.724 546.413L545.861 546.27L578.844 513.288C579.318 512.814 580.086 512.813 580.56 513.287L613.739 546.466C622.357 555.084 622.357 569.056 613.739 577.674Z" stroke="#FFF066" stroke-width="8"/>
<rect x="577" y="565" width="5" height="33" rx="2.5" fill="#FFF066"/>
<path d="M277.739 577.674C269.121 586.292 255.149 586.293 246.53 577.675L243.753 574.898L240.926 577.616C232.287 585.922 218.547 585.819 210.034 577.306C201.52 568.792 201.417 555.052 209.724 546.413L209.861 546.27L242.844 513.288C243.318 512.814 244.086 512.813 244.56 513.287L277.739 546.466C286.357 555.084 286.357 569.056 277.739 577.674Z" stroke="#FFF066" stroke-width="8"/>
<rect x="241" y="565" width="5" height="33" rx="2.5" fill="#FFF066"/>
<path d="M613.739 415.674C605.121 424.292 591.149 424.293 582.53 415.675L579.753 412.898L576.926 415.616C568.287 423.922 554.547 423.819 546.034 415.306C537.52 406.792 537.417 393.052 545.724 384.413L545.861 384.27L578.844 351.288C579.318 350.814 580.086 350.813 580.56 351.287L613.739 384.466C622.357 393.084 622.357 407.056 613.739 415.674Z" stroke="#FFF066" stroke-width="8"/>
<rect x="577" y="403" width="5" height="33" rx="2.5" fill="#FFF066"/>
<path d="M277.739 415.674C269.121 424.292 255.149 424.293 246.53 415.675L243.753 412.898L240.926 415.616C232.287 423.922 218.547 423.819 210.034 415.306C201.52 406.792 201.417 393.052 209.724 384.413L209.861 384.27L242.844 351.288C243.318 350.814 244.086 350.813 244.56 351.287L277.739 384.466C286.357 393.084 286.357 407.056 277.739 415.674Z" stroke="#FFF066" stroke-width="8"/>
<rect x="241" y="403" width="5" height="33" rx="2.5" fill="#FFF066"/>
<path d="M445.739 415.674C437.121 424.292 423.149 424.293 414.53 415.675L411.753 412.898L408.926 415.616C400.287 423.922 386.547 423.819 378.034 415.306C369.52 406.792 369.417 393.052 377.724 384.413L377.861 384.27L410.844 351.288C411.318 350.814 412.086 350.813 412.56 351.287L445.739 384.466C454.357 393.084 454.357 407.056 445.739 415.674Z" stroke="#FFF066" stroke-width="8"/>
<rect x="409" y="403" width="5" height="33" rx="2.5" fill="#FFF066"/>
<defs>
<clipPath id="clip0_31_1882">
<rect width="722" height="1022" fill="white" transform="translate(46 48)"/>
</clipPath>
</defs>
</svg>
